client/public/assets/curriculum/cur-landing-ladder-2.svg

<?xml version="1.0" encoding="UTF-8" standalone="no"?>
<svg viewBox="450 0 816 367" fill="none" version="1.1" id="svg69" xmlns="http://www.w3.org/2000/svg">
  <g opacity="0.8" id="g1" />
  <path
    d="M450 332.479C450 332.479 478.891 333.645 506.023 334.076L552.5 332.479C550.31 334.279 528.786 334.436 506.023 334.076L450 336V332.479Z"
    fill="#CDCDCD" id="path35" />
  <path
    d="M552.5 332.479C547.7 336.424 450 332.479 450 332.479V336L552.5 332.479ZM552.5 332.479C557.3 328.534 545.78 284.971 552.5 283C559.22 281.029 668.14 280.761 671.5 278C674.86 275.239 668.14 241.295 671.5 235.766C674.86 230.237 747 235.766 747 235.766C747 218.192 747 201.683 747 193.001C747 184.319 769.976 185.329 788 184.052C804.995 182.848 1074.24 186.422 1080 184.052"
    stroke="#CDCDCD" id="path36" />
  <path
    d="M879 110.328C873.768 113.745 869.13 109.117 863 110.328C861.42 110.64 860 111.828 860 111.828L857 110.328C857 110.328 853.855 110.605 852 111.328C848.01 112.883 848.168 119.812 844 118.828C839.906 117.862 840 108.828 840 108.828L833 112.328C833 112.328 834.6 127.615 841.5 127.828C846.898 127.995 852 118.828 852 118.828L851 133.328L868.5 134.828L867 118.828C867 118.828 877.981 119.354 883.5 115.828C887.463 113.296 891.5 106.828 891.5 106.828L885 102.328C885 102.328 882.27 108.193 879 110.328Z"
    fill="#F0BE91" id="path37" />
  <path
    d="M834 100.328L833 106.328V108.329L834.5 111.828L838.5 109.828V109.328L840 106.829L839 105.329L837 105.328L838.5 100.829C838.5 100.829 837.5 98.3289 837 100.328C836.5 102.328 835 105.328 835 105.328C835 105.328 835.5 101.828 835.5 100.328C835.5 98.8289 834 100.328 834 100.328Z"
    fill="#F4D4B8" id="path38" />
  <path
    d="M887 100.828L886.5 103.328L890.5 106.33C890.5 106.33 891.767 103.973 892.5 103.329C893.892 102.106 894.721 103.168 896 101.828C897.888 99.8507 896.731 97.7688 895.5 95.3281C894.937 94.2119 892.701 94.178 891.5 93.8291C890.314 93.4844 887.703 94.3181 887 95.3336C886.333 96.2967 886.744 99.6853 887 100.828Z"
    fill="#F4D4B8" id="path39" />
  <path
    d="M821 144.328L825 147.828C825 147.828 822.223 155.686 821 153.328C820.371 152.115 821 149.828 821 149.828C821 149.828 818.372 153.561 816 153.328C814.696 153.2 813 151.828 813 151.828L821 144.328Z"
    fill="#FFF8F8" stroke="#7C6063" id="path40" />
  <path d="M822 145.828L814.5 152.828" stroke="#7C6063" id="path41" />
  <path
    d="M873.659 180.576L871.416 175.757C871.416 175.757 877.135 169.695 877.3 172.345C877.384 173.71 875.884 175.546 875.884 175.546C875.884 175.546 879.797 173.196 881.872 174.368C883.012 175.013 884.009 176.954 884.009 176.954L873.659 180.576Z"
    fill="#FFF8F8" stroke="#7C6063" id="path42" />
  <path d="M873.35 178.802L883.041 175.434" stroke="#7C6063" id="path43" />
  <path
    d="M845 147.828L851 133.328L868 134.828L876.5 154.828L879.5 170.828L870.5 176.328L865 156.828L858 146.328L846 158.828L821 155.828L826.5 146.328L845 147.828Z"
    fill="#94B1EB" id="path44" />
  <path d="M858 110.828L858.5 108.828H862L862.229 110.828L860 112.828L858 110.828Z" fill="#F4D4B8" id="path45" />
  <path
    d="M865.344 103.112C864.633 106.855 864.693 107.277 861.361 109.14C857.992 108.827 856.531 108.79 855.356 104.875C855.581 100.683 858.058 98.3691 860.939 97.7967C862.866 98.1779 865.781 99.1173 865.344 103.112Z"
    fill="#F4D4B8" id="path46" />
  <path d="M859.648 106.57C860.661 107.659 862.036 106.879 862.919 106.191L859.648 106.57Z" fill="black" stroke="black"
    stroke-width="0.5" stroke-linecap="round" stroke-linejoin="round" id="path47" />
  <path
    d="M861.012 105.253L862.498 104.958L861.844 103.348M862.668 102.367C862.63 102.172 862.837 101.926 863.051 101.73C863.343 101.463 863.651 101.209 864.003 101.388C864.285 101.53 864.377 102.105 864.377 102.105M858.122 103.27C858.122 103.27 858.163 102.803 858.56 102.622C859.094 102.379 859.22 102.306 859.798 102.376C860.212 102.427 860.539 102.868 860.539 102.868M856.579 107.388C856.579 107.388 858.41 109.327 861.116 109.012C861.663 108.948 862.435 108.528 862.435 108.528"
    stroke="black" stroke-width="0.5" stroke-linecap="round" stroke-linejoin="round" id="path48" />
  <path fill-rule="evenodd" clip-rule="evenodd"
    d="M857.794 95.4291C857.021 94.7419 855.588 94.6706 854.342 95.3187C852.911 96.0636 852.268 97.4766 852.908 98.4748C853.126 98.8155 853.465 99.0638 853.875 99.2135C853.532 100.148 853.43 101.148 853.619 102.103C853.716 102.591 853.851 103.217 854.11 103.25C854.554 103.162 854.823 103.024 855.04 102.833L855.076 102.832C855.076 102.832 855.892 105.026 855.559 106.584C855.54 106.673 855.523 106.76 855.506 106.844C855.434 107.214 855.369 107.542 855.166 107.907C854.767 108.621 853.426 109.724 853.426 109.724C853.426 109.724 854.714 109.394 855.151 109.155C856.014 108.684 856.247 108.05 856.468 107.196C856.549 106.883 856.569 106.383 856.569 106.383L856.115 104.097C856.047 103.754 856.469 103.234 856.469 103.234L856.561 101.107C856.64 101.034 856.721 100.96 856.805 100.884L860.132 98.4026C860.514 98.2028 860.878 98.0574 861.204 97.9925C861.708 97.8923 862.128 98.2691 862.52 98.6199C862.728 98.8063 862.927 98.9853 863.127 99.0815C863.566 99.2926 863.951 99.5361 864.28 99.758C864.399 99.8389 864.511 99.9169 864.615 99.9894L864.615 99.9896L864.615 99.9896C864.68 100.035 864.742 100.077 864.8 100.118C864.924 100.361 865.028 100.754 865.049 101.389C865.106 103.106 865.251 103.726 865.251 103.726C865.251 103.726 865.507 103.139 865.694 102.762C865.854 102.442 865.501 100.896 865.391 100.437C865.624 100.468 865.664 100.18 865.488 99.293C865.349 98.596 865.06 97.9619 864.656 97.4103C865.362 97.0786 865.872 96.5322 865.988 95.8817C866.198 94.7149 865.064 93.6548 863.456 93.5139C861.959 93.3827 860.58 94.0944 860.227 95.1347C859.652 95.1 859.057 95.1383 858.456 95.2576C858.23 95.3027 858.009 95.3602 857.794 95.4291Z"
    fill="black" id="path49" />
  <path
    d="M857 110.33C857 110.33 856.5 109.83 852 111.33C847.5 112.83 849.5 116.332 846 118.33C842.5 120.328 840.5 113.828 840.5 113.828"
    stroke="black" stroke-width="0.5" id="path50" />
  <path
    d="M835.749 99.8525C835.761 99.715 835.66 99.5934 835.523 99.5809C835.385 99.5684 835.264 99.6697 835.251 99.8072L835.749 99.8525ZM835 105.33L834.751 105.307L835.235 105.415L835 105.33ZM838.5 100.83L838.737 100.909L838.76 100.84L838.743 100.769L838.5 100.83ZM837 105.33L836.763 105.251L836.612 105.704L837.07 105.57L837 105.33ZM839 105.33L839.124 105.113L839 105.33ZM838.5 109.33L838.3 109.18L838.25 109.247V109.33H838.5ZM835.251 99.8072L834.751 105.307L835.249 105.352L835.749 99.8525L835.251 99.8072ZM835 105.33C835.235 105.415 835.235 105.415 835.235 105.415C835.235 105.415 835.235 105.415 835.235 105.415C835.235 105.415 835.235 105.415 835.235 105.414C835.236 105.414 835.236 105.413 835.236 105.411C835.237 105.409 835.239 105.405 835.241 105.4C835.244 105.389 835.25 105.374 835.257 105.354C835.272 105.313 835.294 105.254 835.322 105.179C835.377 105.028 835.457 104.811 835.555 104.55C835.75 104.027 836.015 103.325 836.295 102.608C836.576 101.89 836.872 101.159 837.127 100.578C837.255 100.287 837.372 100.037 837.471 99.8457C837.576 99.6423 837.646 99.5373 837.676 99.5069L837.324 99.1528C837.229 99.247 837.127 99.4229 837.027 99.6158C836.921 99.8207 836.799 100.082 836.67 100.377C836.41 100.968 836.111 101.706 835.83 102.426C835.548 103.146 835.282 103.851 835.086 104.375C834.988 104.637 834.908 104.854 834.852 105.006C834.824 105.082 834.803 105.142 834.788 105.182C834.78 105.202 834.775 105.218 834.771 105.228C834.769 105.234 834.768 105.238 834.767 105.24C834.766 105.242 834.766 105.243 834.765 105.243C834.765 105.244 834.765 105.244 834.765 105.244C834.765 105.244 834.765 105.244 834.765 105.244C834.765 105.244 834.765 105.244 835 105.33ZM837.676 99.5069C837.7 99.4837 837.691 99.5033 837.658 99.4996C837.64 99.4975 837.651 99.4909 837.69 99.5307C837.771 99.6117 837.865 99.7761 837.958 99.9914C838.046 100.198 838.122 100.423 838.175 100.598C838.201 100.685 838.222 100.759 838.236 100.811C838.243 100.837 838.249 100.857 838.252 100.871C838.254 100.877 838.255 100.883 838.256 100.886C838.257 100.888 838.257 100.889 838.257 100.89C838.257 100.89 838.257 100.89 838.257 100.89C838.257 100.891 838.257 100.891 838.257 100.891C838.257 100.891 838.257 100.891 838.257 100.891C838.257 100.891 838.257 100.891 838.5 100.83C838.743 100.769 838.743 100.769 838.743 100.769C838.742 100.769 838.742 100.769 838.742 100.769C838.742 100.769 838.742 100.769 838.742 100.769C838.742 100.768 838.742 100.768 838.742 100.767C838.742 100.766 838.741 100.764 838.741 100.762C838.74 100.758 838.738 100.752 838.736 100.744C838.732 100.729 838.726 100.707 838.719 100.679C838.704 100.624 838.681 100.545 838.653 100.453C838.597 100.269 838.516 100.025 838.417 99.7944C838.322 99.5724 838.197 99.3307 838.044 99.1772C837.967 99.0997 837.856 99.0188 837.715 99.0028C837.559 98.9852 837.425 99.0514 837.324 99.1528L837.676 99.5069ZM838.263 100.751L836.763 105.251L837.237 105.409L838.737 100.909L838.263 100.751ZM837 105.33C837.07 105.57 837.07 105.57 837.07 105.57C837.07 105.57 837.07 105.57 837.07 105.57C837.07 105.57 837.07 105.57 837.07 105.57C837.07 105.57 837.07 105.57 837.071 105.57C837.071 105.57 837.072 105.569 837.073 105.569C837.075 105.569 837.078 105.568 837.082 105.566C837.091 105.564 837.104 105.56 837.122 105.556C837.157 105.547 837.208 105.534 837.272 105.519C837.401 105.49 837.578 105.456 837.775 105.433C838.186 105.385 838.613 105.397 838.876 105.547L839.124 105.113C838.709 104.876 838.136 104.887 837.717 104.936C837.498 104.962 837.303 105 837.162 105.031C837.092 105.047 837.035 105.062 836.995 105.072C836.975 105.077 836.959 105.082 836.948 105.085C836.942 105.086 836.938 105.088 836.935 105.088C836.934 105.089 836.932 105.089 836.931 105.089C836.931 105.09 836.931 105.09 836.93 105.09C836.93 105.09 836.93 105.09 836.93 105.09C836.93 105.09 836.93 105.09 836.93 105.09C836.93 105.09 836.93 105.09 837 105.33ZM838.876 105.547C839.144 105.7 839.366 105.922 839.519 106.159C839.674 106.4 839.75 106.641 839.75 106.83H840.25C840.25 106.52 840.131 106.186 839.939 105.888C839.746 105.588 839.467 105.309 839.124 105.113L838.876 105.547ZM839.75 106.83C839.75 106.83 839.75 106.831 839.75 106.833C839.75 106.835 839.749 106.839 839.749 106.843C839.747 106.851 839.745 106.862 839.741 106.877C839.734 106.906 839.721 106.943 839.703 106.987C839.668 107.077 839.614 107.187 839.546 107.311C839.411 107.559 839.228 107.849 839.042 108.128C838.857 108.406 838.671 108.669 838.531 108.863C838.462 108.96 838.404 109.04 838.363 109.095C838.343 109.122 838.327 109.144 838.316 109.158C838.311 109.165 838.307 109.171 838.304 109.175C838.303 109.176 838.302 109.178 838.301 109.179C838.301 109.179 838.3 109.179 838.3 109.18C838.3 109.18 838.3 109.18 838.3 109.18C838.3 109.18 838.3 109.18 838.3 109.18C838.3 109.18 838.3 109.18 838.5 109.33C838.7 109.48 838.7 109.48 838.7 109.48C838.7 109.48 838.7 109.48 838.7 109.48C838.7 109.48 838.7 109.479 838.7 109.479C838.701 109.479 838.701 109.479 838.701 109.478C838.702 109.477 838.703 109.476 838.705 109.474C838.708 109.47 838.712 109.464 838.717 109.456C838.729 109.441 838.745 109.419 838.766 109.391C838.807 109.335 838.866 109.254 838.937 109.155C839.079 108.958 839.268 108.69 839.458 108.405C839.647 108.122 839.839 107.818 839.985 107.55C840.058 107.417 840.122 107.288 840.168 107.173C840.211 107.065 840.25 106.942 840.25 106.83H839.75ZM838.25 109.33V109.83H838.75V109.33H838.25Z"
    fill="black" id="path51" />
  <path d="M851 133.828L845 147.828L826.5 146.328" stroke="black" stroke-width="0.5" id="path52" />
  <path d="M891.5 106.828C891.5 106.828 887.387 113.976 883 116.328C880.823 117.495 877 118.328 877 118.328"
    stroke="black" stroke-width="0.5" id="path53" />
  <path d="M890.999 93.8281C891.5 95.8281 887.498 95.8281 888.999 96.8281C890.5 97.8281 890.999 99.3281 890.999 99.3281"
    stroke="black" stroke-width="0.5" id="path54" />
  <path
    d="M783.175 60.9775C770.303 80.2311 802.047 85.1886 789.175 104.442L1106 50.5924C1106 50.5924 1096.42 28.7972 1086.17 20.477C1066.51 4.51245 1045.93 36.6728 1024.17 25.9772C1013.15 20.5576 999.455 14.9251 988.635 8.87243C962.15 -5.94272 955.046 12.1361 926.175 10.8973C905.168 9.99595 878.912 -5.10828 862.235 10.8976C850.638 22.0289 847.473 32.1867 835.675 42.9775C822.67 54.8718 796.047 41.724 783.175 60.9775Z"
    fill="url(#paint0_linear_2998_918)" id="path55" />
  <path d="M810 151L804.5 148.5" stroke="black" stroke-width="0.5" id="path56" />
  <path d="M809.139 154.862L795 157.555" stroke="black" stroke-width="0.5" id="path57" />
  <line x1="920.5" y1="180.996" x2="921.493" y2="39.9964" stroke="black" id="line57" />
  <path
    d="M959.872 39.0054C941.809 17.0735 922 42.8653 922 42.8653V93C922 93 942.384 73.2953 957.38 73.7174C968.95 74.0431 973.845 84.3372 985.286 86.5725C1008.29 91.0672 1019.84 66.8141 1043.09 67.9327C1053.74 68.4448 1070 73.7174 1070 73.7174L1050.07 49.9356L1066.01 33.8668C1066.01 33.8668 1052.12 30.2626 1043.09 30.0103C1019.73 29.357 976.815 59.5767 959.872 39.0054Z"
    fill="#E3642A" id="path58" />
  <path d="M974.317 89.1354L974.024 93.1225L970.867 91.156L974.317 89.1354Z" fill="#3B5AFF" fill-opacity="0.8"
    id="path59" />
  <path d="M866.146 76.0609L868.176 81.7251L864.458 81.8362L866.146 76.0609Z" fill="#0931FF" fill-opacity="0.8"
    id="path60" />
  <path d="M849.18 61.5252L851.948 61.1508L849.867 64.2329L849.18 61.5252Z" fill="#FF0909" fill-opacity="0.8"
    id="path61" />
  <path d="M895.359 65.8967L891.406 63.744L896.995 61.7038L895.359 65.8967Z" fill="#FF0909" fill-opacity="0.8"
    id="path62" />
  <path d="M912.213 113.698L908.349 116.007L909.435 110.157L912.213 113.698Z" fill="#3B5AFF" id="path63" />
  <path d="M939.771 96.4045L935.818 94.2519L941.408 92.2116L939.771 96.4045Z" fill="#FF0909" fill-opacity="0.8"
    id="path64" />
  <path d="M872.5 62.5L870 60M897.5 81L897 84.5M846 78L842.5 81.5M959.5 105V109M959.5 84.5L954.5 88M908 90.5L910.5 95"
    stroke="#C7B700" id="path65" />
  <path
    d="M574.545 230.101C574.545 230.101 640.546 239.601 665.611 219.598C686.114 203.236 700.545 143.095 665.611 138.745C650.03 136.805 635.545 146.477 635.546 162.099C635.546 192.094 676.133 183.279 696.545 170.098C712.04 160.092 725.024 120.605 725.024 120.605M725.024 120.605L711.631 124.694M725.024 120.605L729.606 135.61"
    stroke="black" id="path66" />
  <defs id="defs69">
    <rect x="756.33765" y="211.30821" width="568.23812" height="23.199393" id="rect70" />
    <rect x="194.21952" y="103.09013" width="272.81863" height="183.96747" id="rect69" />
    <linearGradient id="paint0_linear_2998_918" x1="930.979" y1="4.75253" x2="932.535" y2="101.898"
      gradientUnits="userSpaceOnUse">
      <stop stop-color="#FCEFE2" id="stop66" />
      <stop offset="0.2" stop-color="#FCEFE2" stop-opacity="0.567066" id="stop67" />
      <stop offset="0.4" stop-color="#FCEFE2" stop-opacity="0.289284" id="stop68" />
      <stop offset="0.6" stop-color="#FCEFE2" stop-opacity="0" id="stop69" />
    </linearGradient>
  </defs>
  <text id="text70" x="756.33789" y="220" >
    Learn about research collaboration and other essential soft skills</text>
  <text x="681.21136" y="265">
    Balance between modern tooling and long-term best practices</text>
  <text x="565.34723" y="310">
    Get access to hight-quality recommened resrouces
  </text>
  <text x="461.70996" y="355" id="text73">
    Get guidance from trusted voices
  </text>
</svg>

<svg xmlns="http://www.w3.org/2000/svg" fill="none" viewBox="450 0 816 367">
  <path fill="#CDCDCD"
    d="M450 332.479s28.891 1.166 56.023 1.597l46.477-1.597c-2.19 1.8-23.714 1.957-46.477 1.597L450 336z" />
  <path stroke="#CDCDCD"
    d="M552.5 332.479c-4.8 3.945-102.5 0-102.5 0V336zm0 0c4.8-3.945-6.72-47.508 0-49.479s115.64-2.239 119-5-3.36-36.705 0-42.234 75.5 0 75.5 0v-42.765c0-8.682 22.976-7.672 41-8.949 16.995-1.204 286.24 2.37 292 0" />
  <path fill="#F0BE91"
    d="M879 110.328c-5.232 3.417-9.87-1.211-16 0-1.58.312-3 1.5-3 1.5l-3-1.5s-3.145.277-5 1c-3.99 1.555-3.832 8.484-8 7.5-4.094-.966-4-10-4-10l-7 3.5s1.6 15.287 8.5 15.5c5.398.167 10.5-9 10.5-9l-1 14.5 17.5 1.5-1.5-16s10.981.526 16.5-3c3.963-2.532 8-9 8-9l-6.5-4.5s-2.73 5.865-6 8" />
  <path fill="#F4D4B8"
    d="m834 100.328-1 6v2.001l1.5 3.499 4-2v-.5l1.5-2.499-1-1.5-2-.001 1.5-4.499s-1-2.5-1.5-.501-2 5-2 5 .5-3.5.5-5-1.5 0-1.5 0M887 100.828l-.5 2.5 4 3.002s1.267-2.357 2-3.001c1.392-1.223 2.221-.161 3.5-1.501 1.888-1.977.731-4.06-.5-6.5-.563-1.116-2.799-1.15-4-1.499-1.186-.345-3.797.49-4.5 1.505-.667.963-.256 4.351 0 5.494" />
  <path fill="#FFF8F8" stroke="#7C6063"
    d="m821 144.328 4 3.5s-2.777 7.858-4 5.5c-.629-1.213 0-3.5 0-3.5s-2.628 3.733-5 3.5c-1.304-.128-3-1.5-3-1.5z" />
  <path stroke="#7C6063" d="m822 145.828-7.5 7" />
  <path fill="#FFF8F8" stroke="#7C6063"
    d="m873.659 180.576-2.243-4.819s5.719-6.062 5.884-3.412c.084 1.365-1.416 3.201-1.416 3.201s3.913-2.35 5.988-1.178c1.14.645 2.137 2.586 2.137 2.586z" />
  <path stroke="#7C6063" d="m873.35 178.802 9.691-3.368" />
  <path fill="#94B1EB" d="m845 147.828 6-14.5 17 1.5 8.5 20 3 16-9 5.5-5.5-19.5-7-10.5-12 12.5-25-3 5.5-9.5z" />
  <path fill="#F4D4B8" d="m858 110.828.5-2h3.5l.229 2-2.229 2z" />
  <path fill="#F4D4B8"
    d="M865.344 103.112c-.711 3.743-.651 4.165-3.983 6.028-3.369-.313-4.83-.35-6.005-4.265.225-4.192 2.702-6.506 5.583-7.078 1.927.38 4.842 1.32 4.405 5.315" />
  <path fill="#000" stroke="#000" stroke-linecap="round" stroke-linejoin="round" stroke-width=".5"
    d="M859.648 106.57c1.013 1.089 2.388.309 3.271-.379z" />
  <path stroke="#000" stroke-linecap="round" stroke-linejoin="round" stroke-width=".5"
    d="m861.012 105.253 1.486-.295-.654-1.61m.824-.981c-.038-.195.169-.441.383-.637.292-.267.6-.521.952-.342.282.142.374.717.374.717m-6.255 1.165s.041-.467.438-.648c.534-.243.66-.316 1.238-.246.414.051.741.492.741.492m-3.96 4.52s1.831 1.939 4.537 1.624c.547-.064 1.319-.484 1.319-.484" />
  <path fill="#000" fill-rule="evenodd"
    d="M857.794 95.43c-.773-.688-2.206-.76-3.452-.111-1.431.745-2.074 2.158-1.434 3.156.218.34.557.589.967.739-.343.934-.445 1.934-.256 2.889.097.488.232 1.114.491 1.147.444-.088.713-.226.93-.417l.036-.001s.816 2.194.483 3.752l-.053.26c-.072.37-.137.698-.34 1.063-.399.714-1.74 1.817-1.74 1.817s1.288-.33 1.725-.569c.863-.471 1.096-1.105 1.317-1.959.081-.313.101-.813.101-.813l-.454-2.286c-.068-.343.354-.863.354-.863l.092-2.127.244-.223 3.327-2.481c.382-.2.746-.346 1.072-.41.504-.1.924.276 1.316.627.208.186.407.365.607.462.439.21.824.454 1.153.676q.179.122.335.231l.185.129c.124.243.228.636.249 1.271.057 1.717.202 2.337.202 2.337s.256-.587.443-.964c.16-.32-.193-1.866-.303-2.325.233.031.273-.257.097-1.144a4.75 4.75 0 0 0-.832-1.883c.706-.331 1.216-.878 1.332-1.528.21-1.167-.924-2.227-2.532-2.368-1.497-.131-2.876.58-3.229 1.62a7 7 0 0 0-1.771.124 6 6 0 0 0-.662.171"
    clip-rule="evenodd" />
  <path stroke="#000" stroke-width=".5" d="M857 110.33s-.5-.5-5 1-2.5 5.002-6 7-5.5-4.502-5.5-4.502" />
  <path fill="#000"
    d="M835.749 99.853a.25.25 0 0 0-.498-.046zM835 105.33l-.249-.023.484.108zm3.5-4.5.237.079.023-.069-.017-.071zm-1.5 4.5-.237-.079-.151.453.458-.134zm2 0 .124-.217zm-.5 4-.2-.15-.05.067v.083zm-3.249-9.523-.5 5.5.498.045.5-5.5zM835 105.33l.235.085v-.001l.001-.003.005-.011.016-.046.065-.175a138.285 138.285 0 0 1 .973-2.571 57 57 0 0 1 .832-2.03c.128-.291.245-.541.344-.732.105-.204.175-.309.205-.34l-.352-.353c-.095.094-.197.27-.297.463-.106.205-.228.466-.357.761-.26.591-.559 1.329-.84 2.049a138 138 0 0 0-.978 2.58l-.064.176-.017.046-.004.012-.002.003v.001zm2.676-5.823c.024-.023.015-.004-.018-.007-.018-.002-.007-.01.032.03.081.082.175.246.268.461a6 6 0 0 1 .278.82l.016.06.004.015.001.004v.001l.243-.061.243-.061h-.001v-.002l-.001-.005-.005-.018-.017-.065-.066-.226a7 7 0 0 0-.236-.659c-.095-.222-.22-.463-.373-.617a.56.56 0 0 0-.329-.174.47.47 0 0 0-.391.15zm.587 1.244-1.5 4.5.474.158 1.5-4.5zM837 105.33l.07.24h.001l.002-.001.009-.003.04-.01.15-.037c.129-.029.306-.063.503-.086.411-.048.838-.036 1.101.114l.248-.434c-.415-.237-.988-.226-1.407-.177a6 6 0 0 0-.555.095q-.106.025-.167.041l-.047.013-.013.003-.004.001-.001.001zm1.876.217a1.9 1.9 0 0 1 .643.612c.155.241.231.482.231.671h.5c0-.31-.119-.644-.311-.942a2.4 2.4 0 0 0-.815-.775zm.874 1.283v.003l-.001.01-.008.034a1 1 0 0 1-.038.11q-.054.137-.157.324c-.135.248-.318.538-.504.817a24 24 0 0 1-.679.967l-.047.063-.012.017-.003.004-.001.001.2.15.2.15v-.001l.001-.001.004-.004.012-.018.049-.065a30 30 0 0 0 .692-.986 12 12 0 0 0 .527-.855c.073-.133.137-.262.183-.377a1 1 0 0 0 .082-.343zm-1.5 2.5v.5h.5v-.5z" />
  <path stroke="#000" stroke-width=".5"
    d="m851 133.828-6 14-18.5-1.5M891.5 106.828s-4.113 7.148-8.5 9.5c-2.177 1.167-6 2-6 2M890.999 93.828c.501 2-3.501 2-2 3s2 2.5 2 2.5" />
  <path fill="url(#a)"
    d="M783.175 60.978c-12.872 19.253 18.872 24.21 6 43.464L1106 50.592s-9.58-21.795-19.83-30.115c-19.66-15.965-40.24 16.196-62 5.5-11.02-5.42-24.715-11.052-35.535-17.105-26.485-14.815-33.589 3.264-62.46 2.025-21.007-.901-47.263-16.005-63.94 0-11.597 11.132-14.762 21.29-26.56 32.08-13.005 11.895-39.628-1.253-52.5 18" />
  <path stroke="#000" stroke-width=".5" d="m810 151-5.5-2.5M809.139 154.862 795 157.555" />
  <path stroke="#000" d="m920.5 180.996.993-141" />
  <path fill="#E3642A"
    d="M959.872 39.005C941.809 17.073 922 42.865 922 42.865V93s20.384-19.705 35.38-19.283c11.57.326 16.465 10.62 27.906 12.856 23.004 4.494 34.554-19.759 57.804-18.64 10.65.512 26.91 5.784 26.91 5.784l-19.93-23.781 15.94-16.07s-13.89-3.603-22.92-3.856c-23.36-.653-66.275 29.567-83.218 8.995" />
  <path fill="#3B5AFF" fill-opacity=".8" d="m974.317 89.135-.293 3.987-3.157-1.966z" />
  <path fill="#0931FF" fill-opacity=".8" d="m866.146 76.06 2.03 5.665-3.718.111z" />
  <path fill="#FF0909" fill-opacity=".8"
    d="m849.18 61.525 2.768-.374-2.081 3.082zM895.359 65.897l-3.953-2.153 5.589-2.04z" />
  <path fill="#3B5AFF" d="m912.213 113.698-3.864 2.309 1.086-5.85z" />
  <path fill="#FF0909" fill-opacity=".8" d="m939.771 96.405-3.953-2.153 5.59-2.04z" />
  <path stroke="#C7B700"
    d="M872.5 62.5 870 60m27.5 21-.5 3.5M846 78l-3.5 3.5m117 23.5v4m0-24.5-5 3.5M908 90.5l2.5 4.5" />
  <path stroke="var(--text-primary)"
    d="M574.545 230.101s66.001 9.5 91.066-10.503c20.503-16.362 34.934-76.503 0-80.853-15.581-1.94-30.066 7.732-30.065 23.354 0 29.995 40.587 21.18 60.999 7.999 15.495-10.006 28.479-49.493 28.479-49.493m0 0-13.393 4.089m13.393-4.089 4.582 15.005" />
  <defs>
    <linearGradient id="a" x1="930.979" x2="932.535" y1="4.753" y2="101.898" gradientUnits="userSpaceOnUse">
      <stop stop-color="var(--cur-bg-color)" />
      <stop offset=".2" stop-color="var(--cur-bg-color)" stop-opacity=".567" />
      <stop offset=".4" stop-color="var(--cur-bg-color)" stop-opacity=".289" />
      <stop offset=".6" stop-color="var(--cur-bg-color)" stop-opacity="0" />
    </linearGradient>
  </defs><text x="756.338" y="220">
    Learn about research collaboration and other essential soft skills</text><text x="681.211" y="265">
    Balance between modern tooling and long-term best practices</text><text x="565.347" y="310">
    Get access to hight-quality recommened resrouces
  </text><text x="461.71" y="355">
    Get guidance from trusted voices
  </text>
</svg>
